X: 20
T: Topsy Turvy
%R: reel
B: Kitty Bridges "Collection of Country Dances 1745" p.20
F: http://www.vwml.org/browse/browse-collections-dance-tune-books/browse-bridges1745
Z: 2015 John Chambers <jc:trillian.mit.edu>
M: C
L: 1/8
K: F
% - - - - - - - - - - - - - - - - - - - - - - - - - - - - -
|:\
fcfc fa2g/f/ | ecec eg2f/e/ |\
fcfc Ac2B/A/ | Bd2c/B/ A2F2 :|
|:\
Bd2c/B/ AF A/B/c/A/ | bg2f e2c2 |\
Bd2c/B/ AF A/B/c/A/ | af2c A2F2 :|
% - - - - - - - - - - Dance description - - - - - - - - - -
%%center Topcy Turvy
%%begintext align
%%   The 1st Man set and turn single then
%% turn the 2d Wo. .| First Wo. do the same
%% :| Then 1st Cu. lead up, and 2d Cu. lead
%% down, then right and left quite round Clap
%% and cast off and double figure at the bottom
%% then clap lead up and cast off.
%%endtext

%%sep 1 1 500
%%sep 1 1 500

